images/twitter-logo.svg

<svg width="40" height="40" viewBox="0 0 40 40" fill="none" xmlns="http://www.w3.org/2000/svg">
	<path d="M38.8948 3.6103C37.309 4.56864 35.5535 5.26408 33.6836 5.63941C32.1872 4.01541 30.0541 3 27.6937 3C23.162 3 19.488 6.74167 19.488 11.3573C19.488 12.0114 19.5603 12.6489 19.7007 13.2617C12.8801 12.9127 6.83257 9.58627 2.78492 4.52981C2.07858 5.76352 1.6742 7.199 1.6742 8.73196C1.6742 11.631 3.12269 14.1893 5.32481 15.6877C3.98015 15.6438 2.71432 15.2676 1.60759 14.6417C1.60682 14.6764 1.60682 14.712 1.60682 14.7475C1.60682 18.7959 4.43567 22.1729 8.19025 22.9419C7.50168 23.1322 6.77666 23.2346 6.02794 23.2346C5.4986 23.2346 4.98459 23.1825 4.48359 23.0841C5.52861 26.404 8.55881 28.8211 12.1494 28.888C9.34078 31.1296 5.80301 32.4659 1.95761 32.4659C1.29584 32.4659 0.642188 32.4262 0 32.3485C3.63271 34.7208 7.94587 36.1034 12.5798 36.1034C27.6751 36.1034 35.9288 23.3695 35.9288 12.3256C35.9288 11.9634 35.9214 11.6021 35.9061 11.2433C37.5089 10.0675 38.9006 8.59486 40 6.91878C38.5295 7.58444 36.947 8.03337 35.2866 8.23435C36.9819 7.20057 38.2819 5.56345 38.8948 3.6103Z" fill="url(#paint_linear)"/>
	<defs>
		<linearGradient id="paint_linear" x1="4.31282" y1="2.56681" x2="38.2845" y2="35.9258" gradientUnits="userSpaceOnUse">
			<stop stop-color="#11A4DC"/>
			<stop offset="0.5051" stop-color="#0F94C9"/>
			<stop offset="1" stop-color="#0C82B4"/>
		</linearGradient>
	</defs>
</svg>

<svg width="40" height="40" fill="none" xmlns="http://www.w3.org/2000/svg"><path d="M38.895 3.61a16.249 16.249 0 01-5.211 2.03A8.127 8.127 0 0027.694 3c-4.532 0-8.206 3.742-8.206 8.357 0 .654.072 1.292.213 1.905-6.82-.35-12.868-3.676-16.916-8.732a8.432 8.432 0 00-1.11 4.202 8.394 8.394 0 003.65 6.956 8.073 8.073 0 01-3.717-1.046l-.001.106c0 4.048 2.829 7.425 6.583 8.194a8.106 8.106 0 01-3.706.142c1.045 3.32 4.075 5.737 7.665 5.804A16.276 16.276 0 010 32.348a22.92 22.92 0 0012.58 3.755c15.095 0 23.349-12.734 23.349-23.777 0-.363-.008-.724-.023-1.083A16.793 16.793 0 0040 6.92a16.1 16.1 0 01-4.713 1.315 8.347 8.347 0 003.608-4.624z" fill="url(#paint_linear)"/><defs><linearGradient id="paint_linear" x1="4.313" y1="2.567" x2="38.285" y2="35.926" gradientUnits="userSpaceOnUse"><stop stop-color="#11A4DC"/><stop offset=".505" stop-color="#0F94C9"/><stop offset="1" stop-color="#0C82B4"/></linearGradient></defs></svg>
